X:16
T:Father O'Flynn
T:An tAthair \'O Floinn
C:Traditional
M:6/8
L:1/8
Q:1/4=80
K:D
|: A | "D" dAF DFA | "G" ded cBA | "D" dcd "Bm" efg | "A" fef "Em" ecA |
"D" dAF DFA | "G" ded cBA | "D" dcd "Em" efg | "A" fdd "D" d2 :|
|: g | "D" fdf fga | "A" efe ecA | "G" dcd Bed | "A" cAA A2 =c |
"G" BGB Bcd | "A" AFD DFA | "D" dcd "Bm" efg | "A" fdd "D" d2 :|



